-----BEGIN PGP PUBLIC KEY BLOCK-----

mQGNBGq1QHEBDADcgaj8eaZuSYnzdwNIoaxp3geZm5YrS8aYLJZ0UvS+7tQZQ9j/
shvUjq7SshiPa5OTRn2ufwwyaHOCxMzFv1soLyiTJLLgStTojK8ZJk2kVBzN0ENn
4WzNovPD6ek8+J/bjWtnSNOipZ+iK0/cVpPAGu8mFNHJy582/jrwTCBOMxYFOA80
gaE6Ceg9h3p3ByRJjcE70QqWUjBUFW8h5e3hn7qCWsywTAK1Nb/JGog/zW+loiIt
KcWhaRrVhtqqUX3HhjzGoY6U+ZShgy8C195ErS4JaoQQAoAB0t2+evjxUNUegkk2
pjVzSSI8//KSiE8bINWGIkE8GkNFL1OhvrFEEUXzCHfmqZVbsjES8wWSY6RM4Z8w
OFLgAaLE6IJ4/MB8tjWJXDxIE/c87Kp456yh4IQcQSTNZyfmJt9qNIIB1vIoqJRL
CeEwFDWJOITJhWHwEdCar9iCfdYsXIi/qIPDXLbi9BOf3T/dFHkymlIFS6MzVSkf
Kt2MuF1rtSIfUZ0AEQEAAbQwU09GVFNFQyBHcm91cCA0IFNlcnZlciA8aWRhc2xh
bmphbmtpY0BnbWFpbC5jb20+iQHtBBMBCABXFiEEkHGqfxvEqEfu7Rl6IUmUMJmD
facFAmq1QHEbFIAAAAAABAAObWFudTIsMi41KzEuMTIsMCwzAhsDBQsJCAcCAiIC
BhUKCQgLAgQWAgMBAh4HAheAAAoJECFJlDCZg32nQjkMAM3Hgi8lQsnHz/ntQwEs
90KemV+HFdX35X2B2OsAuvjwqXneELiy0901y6PXCsU52Z5s9Ne8Qpj8aw28wJu+
tzxA1ORVCzP6lK7yXiKcOUxwSgJzoaq955rIHSLIfCYF7wOOixB9JOiOtFHIMcPL
O0TSYjtQuBr+eFmpbPGJJZXuhydRAOmD4X7XG4dzkGPL1gkeLCmml7H+3afHCmQt
xToEetFK0fjeNPGB5BG0ovXzzABgMiNySQFia0ln1orDQdJBFEVGRooTGE81jcfz
4xugLOuXGheC5g8xRSJpB1kgZsH95zm4RmnYs2UCIRIeKIi7iTOKQ0TDVjBrK4av
5MzqDWMUgxpmRIt4FVTwzCLB8ZrqnThB8sGDbXpR/PiXct/8pIwPrQfSc6GW6R48
89Ea/WsGXdfhTPsZZQmY4pdcSgd0mjX+SZBMzN9u25r81qmoU6FrYFL2CxHDsJcD
OSHD8KmmAmwRsIKTE16dYRfeJFZrOMRIRp+lhHC63s+yF7kBjQRqtUBxAQwAs1H1
v8uL5SZ74y9V74oayhwQMvkcqj0BTjPMtxe9rtxwAPg4FQo5GME/HC2wW8nefMGs
6HzA6lELbISazpGVI5UvoJ2LhSghOfk6FDnJHMdJnQLLlO61Dkql5t0DJImGteqm
rccQ5yVj4B18X/JDs7pJ/n9Ir/Yedl1veXD9JBGXzrKBZhIvGv5MpbviyiVjiqZA
TXPPav8b29JeuE5SUWYJNzjKyNfaOW0I3aOHVkM18M/VgZRkwK8DyDCLGnYDwxQ1
4kgOHTFU0sPCsH3KpjsNHK7sGC3ZXeFAKbgJqZnqNfgoyicSBPqBItlR/oGC8Fz3
uLg8kB5IqMCurhaRqGbHI/BgiGrUk5hMriZwyJ340AelaPucoimO8Bbrf1Mo99qb
HJW2OjHaDl7499C80+kVl5lxBhYwLA8+a2pRtIREetVnfWumlZSd9OzHxaZUAKLd
9FiJoa++tNaj1ZnqwYuDOmc0Bd+AV1ElqXVeBT9fZ3Tq2NgBRoEtebPUghn1ABEB
AAGJAdIEGAEIADwWIQSQcap/G8SoR+7tGXohSZQwmYN9pwUCarVAcRsUgAAAAAAE
AA5tYW51MiwyLjUrMS4xMiwwLDMCGwwACgkQIUmUMJmDfafEEQwAsKW6cs1JEsxZ
r7bHHHh0L2oIo/ygXcRnOo5iSWmgvHz0Dl9B/6tHHjMQayOC3b4deQpOhfUvDZFZ
UgD00TbMfMi6Nv0rINnZjZP1Bsyi+35+aU3ErhB0QHU6CM9eVkHOr+RNATS9YSyb
stWNvXw5W1gEw7WFSX4xA468anQ8I501cYF5i2avbfEiXuz8R5u1tRzSlojdJOyW
IPkeaAOADbjux3VpQoEF/ncMNX4iqsuXi2uqgbRBLqNrjNJ/bV8iwci3Zv8uBx7R
7Ow5a+joFV4ei4Qc6alZQHcFMAxepSI+lK+o5rm4sabRfoiSOwDw1A/IAsoCCi+l
QBrm4gwuKykykh7mpUUhRAhG66GafTqHk8tOgIZBC9r719tDHvXEecs902F2o4/n
R2WQhG9T3ScR4O46ZHKPI9WziRncuqTQdA/viUYW5w4Kn1FPD2naGvGsNuBY1j8B
fH9AziAAM3qZh4HnOsvIk0XKg0ZqXJ1dV2AWc3nVaWon7VGwe2jP
=TOVa
-----END PGP PUBLIC KEY BLOCK-----
